svg/country-4x3/na.svg

<?xml version="1.0" encoding="UTF-8" standalone="no"?>
<!-- Created with Sodipodi ("http://www.sodipodi.com/") -->

<svg
   xmlns:dc="http://purl.org/dc/elements/1.1/"
   xmlns:cc="http://creativecommons.org/ns#"
   xmlns:rdf="http://www.w3.org/1999/02/22-rdf-syntax-ns#"
   xmlns:svg="http://www.w3.org/2000/svg"
   xmlns="http://www.w3.org/2000/svg"
   xmlns:sodipodi="http://sodipodi.sourceforge.net/DTD/sodipodi-0.dtd"
   xmlns:inkscape="http://www.inkscape.org/namespaces/inkscape"
   version="1"
   x="0"
   y="0"
   width="640"
   height="480"
   id="svg378"
   sodipodi:version="0.32-hydra1"
   sodipodi:docname="na.svg"
   inkscape:version="0.48.1 r9760">
  <sodipodi:namedview
     id="base"
     showgrid="false"
     inkscape:zoom="1.0958333"
     inkscape:cx="320"
     inkscape:cy="240"
     inkscape:window-width="1280"
     inkscape:window-height="746"
     inkscape:window-x="0"
     inkscape:window-y="24"
     inkscape:window-maximized="1"
     inkscape:current-layer="svg378" />
  <metadata
     id="metadata4232">
    <rdf:RDF>
      <cc:Work
         rdf:about="">
        <dc:format>image/svg+xml</dc:format>
        <dc:type
           rdf:resource="http://purl.org/dc/dcmitype/StillImage" />
      </cc:Work>
    </rdf:RDF>
  </metadata>
  <defs
     id="defs380">
    <clipPath
       id="clipPath4392"
       clipPathUnits="userSpaceOnUse">
      <rect
         y="0"
         width="512"
         style="fill:#000000;fill-opacity:0.67000002;stroke:none"
         x="0"
         height="512"
         id="rect4394" />
    </clipPath>
    <clipPath
       id="clipPath5238"
       clipPathUnits="userSpaceOnUse">
      <rect
         y="0"
         width="682.66669"
         style="fill:#000000;fill-opacity:0.67000002;stroke:none"
         x="-80.108498"
         height="512"
         id="rect5240" />
    </clipPath>
    <clipPath
       clipPathUnits="userSpaceOnUse"
       id="clipPath3052">
      <rect
         id="rect3054"
         height="480"
         x="0"
         style="fill:#000000;fill-opacity:0.67000002;stroke:none"
         width="640"
         y="0" />
    </clipPath>
  </defs>
  <g
     id="flag"
     clip-path="url(#clipPath3052)"
     inkscape:label="#g3004">
    <rect
       style="font-size:12px;fill:#ffffff;fill-opacity:1;fill-rule:evenodd;stroke:none"
       id="rect628"
       width="640"
       height="480"
       x="0"
       y="2.1857516e-15" />
    <g
       transform="matrix(0.9375,0,0,0.9375,-20.900839,0)"
       id="g4284">
      <path
         sodipodi:nodetypes="cccc"
         id="path623"
         d="M -5.837925,0.23863834 -4.9817947,368.82489 568.99964,2.8507448e-6 -5.837925,0.23863834 z"
         style="font-size:12px;fill:#3662a2;fill-opacity:1;fill-rule:evenodd;stroke:none"
         inkscape:connector-curvature="0" />
      <path
         sodipodi:nodetypes="cccc"
         id="path624"
         d="m 733.09305,511.53241 -1.34679,-383.2529 -578.9843,383.536 580.33109,-0.2831 z"
         style="font-size:12px;fill:#38a100;fill-opacity:1;fill-rule:evenodd;stroke:none"
         inkscape:connector-curvature="0" />
      <path
         sodipodi:nodetypes="ccccccc"
         id="path625"
         d="M -5.4683695,396.61474 -4.9817947,512 120.2716,511.83509 732.03092,101.6973 731.34378,1.3762402 607.58095,0.23863834 -5.4683695,396.61474 z"
         style="font-size:12px;fill:#c70000;fill-opacity:1;fill-rule:evenodd;stroke:none"
         inkscape:connector-curvature="0" />
    </g>
    <g
       id="g4279"
       transform="matrix(0.9375,0,0,0.9375,75.10172,0)">
      <polygon
         transform="matrix(0.62436482,0.02379492,-0.02499763,0.62440399,20.580262,22.369088)"
         points="223.811,249.354 185.841,228.379 165.902,266.903 143.507,229.754 106.977,253.147 106.157,209.777 62.8242,211.772 83.7989,173.801 45.2746,153.863 82.4244,131.467 59.0307,94.9374 102.401,94.1169 100.407,50.7846 138.377,71.7593 158.315,33.235 180.711,70.3847 217.241,46.9911 218.061,90.3616 261.394,88.3669 240.419,126.337 278.943,146.276 241.793,168.672 265.187,205.201 221.817,206.022 223.811,249.354 "
         sodipodi:arg2="1.2765396"
         sodipodi:arg1="1.0147401"
         sodipodi:r2="81.827049"
         sodipodi:r1="116.89579"
         sodipodi:cy="150.06924"
         sodipodi:cx="162.10886"
         sodipodi:sides="12"
         id="polygon715"
         style="font-size:12px;fill:#ffe700;fill-opacity:1;fill-rule:evenodd;stroke-width:1pt"
         sodipodi:type="star"
         inkscape:flatsided="false"
         inkscape:rounded="0"
         inkscape:randomized="0"
         d="m 223.81121,249.35391 -37.97017,-20.97471 -19.93871,38.52427 -22.39578,-37.14972 -36.52956,23.39363 -0.82045,-43.37048 -43.332351,1.9947 20.97471,-37.97017 -38.524264,-19.93871 37.149716,-22.39578 -23.393635,-36.529562 43.370484,-0.820453 -1.9947,-43.332348 37.97017,20.97471 19.93871,-38.524264 22.39578,37.149717 36.52956,-23.393636 0.82046,43.370487 43.33234,-1.994702 -20.97471,37.970171 38.52427,19.93871 -37.14972,22.39578 23.39364,36.52956 -43.37049,0.82045 z" />
      <path
         transform="matrix(0.87762944,0,0,0.87082542,-42.442258,-41.527613)"
         sodipodi:ry="56.653954"
         sodipodi:rx="56.653957"
         sodipodi:cy="185.40787"
         sodipodi:cx="182.86328"
         d="m 239.51724,185.40787 c 0,31.28911 -25.36484,56.65395 -56.65396,56.65395 -31.28912,0 -56.65396,-25.36484 -56.65396,-56.65395 0,-31.28912 25.36484,-56.65396 56.65396,-56.65396 31.28912,0 56.65396,25.36484 56.65396,56.65396 z"
         id="path716"
         style="fill:#3662a2;fill-opacity:1;fill-rule:evenodd;stroke:none"
         sodipodi:type="arc" />
      <path
         transform="matrix(0.68713608,0,0,0.68713608,-7.6080137,-7.4701531)"
         sodipodi:ry="56.653954"
         sodipodi:rx="56.653957"
         sodipodi:cy="185.40787"
         sodipodi:cx="182.86328"
         d="m 239.51724,185.40787 c 0,31.28911 -25.36484,56.65395 -56.65396,56.65395 -31.28912,0 -56.65396,-25.36484 -56.65396,-56.65395 0,-31.28912 25.36484,-56.65396 56.65396,-56.65396 31.28912,0 56.65396,25.36484 56.65396,56.65396 z"
         id="path717"
         style="fill:#ffe700;fill-opacity:1;fill-rule:evenodd;stroke:none"
         sodipodi:type="arc" />
    </g>
  </g>
</svg>

<?xml version="1.0" encoding="UTF-8" standalone="no"?>
<!-- Created with Sodipodi ("http://www.sodipodi.com/") -->
<svg id="svg378" xmlns:rdf="http://www.w3.org/1999/02/22-rdf-syntax-ns#" xmlns="http://www.w3.org/2000/svg" height="480" width="640" version="1" y="0" x="0" xmlns:cc="http://creativecommons.org/ns#" xmlns:dc="http://purl.org/dc/elements/1.1/">
 <metadata id="metadata4232">
  <rdf:RDF>
   <cc:Work rdf:about="">
    <dc:format>image/svg+xml</dc:format>
    <dc:type rdf:resource="http://purl.org/dc/dcmitype/StillImage"/>
   </cc:Work>
  </rdf:RDF>
 </metadata>
 <defs id="defs380">
  <clipPath id="clipPath3052" clipPathUnits="userSpaceOnUse">
   <rect id="rect3054" fill-opacity="0.67" height="480" width="640" y="0" x="0"/>
  </clipPath>
 </defs>
 <g id="flag" fill-rule="evenodd" clip-path="url(#clipPath3052)">
  <rect id="rect628" height="480" width="640" y="2.1858e-15" x="0" fill="#fff"/>
  <g id="g4284" transform="matrix(.9375 0 0 .9375 -20.901 0)">
   <path id="path623" d="m-5.8379 0.23864 0.8561 368.58 573.98-368.82-574.84 0.23864z" fill="#3662a2"/>
   <path id="path624" d="m733.09 511.53-1.3468-383.25-578.98 383.54 580.33-0.2831z" fill="#38a100"/>
   <path id="path625" d="m-5.4684 396.61 0.4866 115.39 125.25-0.16 611.76-410.14-0.69-100.32-123.76-1.1414-613.05 396.37z" fill="#c70000"/>
  </g>
  <g id="g4279" transform="matrix(.9375 0 0 .9375 75.102 0)">
   <polygon id="polygon715" transform="matrix(.62436 .023795 -.024998 .62440 20.58 22.369)" d="m 223.81121,249.35391 -37.97017,-20.97471 -19.93871,38.52427 -22.39578,-37.14972 -36.52956,23.39363 -0.82045,-43.37048 -43.332351,1.9947 20.97471,-37.97017 -38.524264,-19.93871 37.149716,-22.39578 -23.393635,-36.529562 43.370484,-0.820453 -1.9947,-43.332348 37.97017,20.97471 19.93871,-38.524264 22.39578,37.149717 36.52956,-23.393636 0.82046,43.370487 43.33234,-1.994702 -20.97471,37.970171 38.52427,19.93871 -37.14972,22.39578 23.39364,36.52956 -43.37049,0.82045 z" points="223.81 249.35 185.84 228.38 165.9 266.9 143.51 229.75 106.98 253.15 106.16 209.78 62.824 211.77 83.799 173.8 45.275 153.86 82.424 131.47 59.031 94.937 102.4 94.117 100.41 50.785 138.38 71.759 158.32 33.235 180.71 70.385 217.24 46.991 218.06 90.362 261.39 88.367 240.42 126.34 278.94 146.28 241.79 168.67 265.19 205.2 221.82 206.02" stroke-width="1pt" fill="#ffe700"/>
   <path id="path716" d="m239.52 185.41c0 31.289-25.365 56.654-56.654 56.654s-56.654-25.365-56.654-56.654 25.365-56.654 56.654-56.654 56.654 25.365 56.654 56.654z" transform="matrix(.87763 0 0 .87083 -42.442 -41.528)" fill="#3662a2"/>
   <path id="path717" d="m239.52 185.41c0 31.289-25.365 56.654-56.654 56.654s-56.654-25.365-56.654-56.654 25.365-56.654 56.654-56.654 56.654 25.365 56.654 56.654z" transform="matrix(.68714 0 0 .68714 -7.608 -7.4702)" fill="#ffe700"/>
  </g>
 </g>
</svg>
